;FLAVOR:RepRap
;TIME:291
;Filament used: 0.270547m
;Layer height: 0.3
;Generated with Cura_SteamEngine 2.4.0
M104 S185
M109 S185
G28 ;Home
G1 Z15.0 F6000 ;Move the platform down 15mm
;Prime the extruder
G92 E0
G1 F200 E3
G92 E0
;LAYER_COUNT:27
;LAYER:0
M107
G1 F1500 E-6.5
G0 F3600 X75.48 Y34.06 Z0.2
;TYPE:WALL-INNER
G1 F1500 E0
G1 F900 X76.943 Y32.155 E0.07989
G1 X78.847 Y30.692 E0.15975
G1 X81.065 Y29.774 E0.23959
G1 X83.442 Y29.46 E0.31934
G1 X85.819 Y29.774 E0.39908
G1 X88.037 Y30.692 E0.47892
G1 X89.943 Y32.155 E0.55884
G1 X91.404 Y34.06 E0.63869
G1 X92.323 Y36.277 E0.71851
G1 X92.636 Y38.654 E0.79825
G1 X92.323 Y41.031 E0.87799
G1 X91.403 Y43.251 E0.95792
G1 X89.943 Y45.155 E1.03772
G1 X88.039 Y46.615 E1.11753
G1 X85.819 Y47.535 E1.19745
G1 X83.442 Y47.848 E1.27719
G1 X81.065 Y47.535 E1.35694
G1 X78.848 Y46.616 E1.43676
G1 X76.943 Y45.155 E1.51661
G1 X75.48 Y43.248 E1.59655
G1 X74.561 Y41.031 E1.67637
G1 X74.248 Y38.654 E1.75611
G1 X74.561 Y36.277 E1.83585
G1 X75.48 Y34.06 E1.91568
G0 F3600 X75.566 Y34.11
G0 X77.708 Y34.637
G0 X77.805 Y34.659
G1 F900 X77.767 Y35.065 E1.92924
G1 X77.834 Y35.464 E1.9427
G1 X77.949 Y35.718 E1.95197
G1 X77.984 Y35.794 E1.95475
G0 X77.88 Y35.807
G1 X77.7 Y35.832 E1.95885
G1 X77.326 Y35.986 E1.97231
G1 X76.999 Y36.235 E1.98598
G1 X76.75 Y36.562 E1.99965
G1 X76.596 Y36.936 E2.0131
G1 X76.542 Y37.338 E2.02659
G1 X76.596 Y37.74 E2.04008
G1 X76.75 Y38.114 E2.05353
G1 X76.981 Y38.418 E2.06623
G1 X76.999 Y38.441 E2.0672
G1 X77.18 Y38.579 E2.07477
G1 X77.205 Y38.598 E2.07582
G1 X77.28 Y38.655 E2.07895
G0 X77.205 Y38.712
G1 X77.182 Y38.73 E2.07992
G1 X77.002 Y38.865 E2.08741
G1 X76.983 Y38.89 E2.08839
G1 X76.75 Y39.192 E2.10108
G1 X76.596 Y39.568 E2.11459
G1 X76.542 Y39.97 E2.12808
G1 X76.596 Y40.374 E2.14164
G1 X76.75 Y40.75 E2.15515
G1 X77 Y41.074 E2.16876
G1 X77.322 Y41.32 E2.18224
G1 X77.641 Y41.454 E2.19375
G1 X77.7 Y41.478 E2.19587
G1 X77.982 Y41.514 E2.20532
G0 X77.952 Y41.585
G1 X77.927 Y41.643 E2.20719
G1 X77.818 Y41.897 E2.21638
G1 X77.767 Y42.302 E2.22996
G1 X77.818 Y42.704 E2.24343
G1 X77.976 Y43.082 E2.25706
G1 X78.222 Y43.404 E2.27054
G1 X78.546 Y43.654 E2.28415
G1 X78.922 Y43.808 E2.29766
G1 X79.326 Y43.862 E2.31122
G1 X79.631 Y43.821 E2.32146
G1 X79.728 Y43.808 E2.32471
G1 X79.906 Y43.735 E2.33111
G1 X79.942 Y43.72 E2.33241
G0 X79.932 Y43.796
G1 X79.945 Y43.893 E2.33566
G1 X79.986 Y44.2 E2.34596
G1 X80.141 Y44.578 E2.35955
G1 X80.392 Y44.901 E2.37316
G1 X80.711 Y45.144 E2.3865
G1 X81.086 Y45.303 E2.40004
G1 X81.492 Y45.358 E2.41367
G1 X81.898 Y45.303 E2.4273
G1 X82.273 Y45.144 E2.44084
G1 X82.499 Y44.971 E2.45031
G1 X82.592 Y44.901 E2.45418
G1 X82.657 Y44.818 E2.45769
G1 X82.701 Y44.761 E2.46008
G0 X82.734 Y44.84
G0 X82.758 Y44.896
G1 X82.828 Y44.989 E2.46395
G1 X83.002 Y45.217 E2.47349
G1 X83.327 Y45.466 E2.48711
G1 X83.702 Y45.62 E2.50059
G1 X84.106 Y45.674 E2.51415
G1 X84.508 Y45.62 E2.52764
G1 X84.884 Y45.466 E2.54116
G1 X85.21 Y45.214 E2.55486
G1 X85.454 Y44.894 E2.56824
G1 X85.567 Y44.626 E2.57792
G1 X85.611 Y44.522 E2.58167
G1 X85.613 Y44.505 E2.58224
G1 X85.627 Y44.407 E2.58554
G0 X85.672 Y44.441
G0 X85.785 Y44.528
G1 X85.889 Y44.572 E2.58929
G1 X86.16 Y44.687 E2.59908
G1 X86.566 Y44.742 E2.61271
G1 X86.975 Y44.687 E2.62644
G1 X87.348 Y44.528 E2.63992
G1 X87.669 Y44.283 E2.65335
G1 X87.915 Y43.961 E2.66683
G1 X88.074 Y43.585 E2.68041
G1 X88.125 Y43.18 E2.69399
G1 X88.077 Y42.8 E2.70672
G1 X88.074 Y42.777 E2.7075
G1 X88.057 Y42.736 E2.70897
G0 X88.078 Y42.738
G0 X88.312 Y42.77
G1 X88.714 Y42.716 E2.72246
G1 X89.089 Y42.562 E2.73595
G1 X89.414 Y42.314 E2.74954
G1 X89.664 Y41.99 E2.76316
G1 X89.818 Y41.614 E2.77667
G1 X89.872 Y41.21 E2.79023
G1 X89.818 Y40.808 E2.80372
G1 X89.664 Y40.432 E2.81723
G1 X89.508 Y40.229 E2.82575
G1 X89.479 Y40.191 E2.82734
G1 X89.428 Y40.125 E2.83011
G0 X89.522 Y40.087
G1 X89.719 Y40.006 E2.83515
G1 X89.757 Y39.977 E2.83674
G1 X90.044 Y39.758 E2.84875
G1 X90.294 Y39.434 E2.86236
G1 X90.448 Y39.058 E2.87588
G1 X90.502 Y38.654 E2.88943
G1 X90.448 Y38.252 E2.90292
G1 X90.294 Y37.876 E2.91644
G1 X90.042 Y37.55 E2.93014
G1 X89.721 Y37.305 E2.94357
G1 X89.519 Y37.221 E2.95085
G1 X89.43 Y37.183 E2.95407
G0 X89.477 Y37.121
G1 X89.664 Y36.874 E2.96187
G1 X89.818 Y36.5 E2.97532
G1 X89.872 Y36.098 E2.98881
G1 X89.818 Y35.696 E3.0023
G1 X89.664 Y35.32 E3.01582
G1 X89.412 Y34.994 E3.02952
G1 X89.091 Y34.749 E3.04295
G1 X88.718 Y34.593 E3.0564
G1 X88.391 Y34.548 E3.06738
G1 X88.312 Y34.538 E3.07003
G1 X88.179 Y34.556 E3.07449
G1 X88.059 Y34.572 E3.07852
G0 X88.07 Y34.5
G1 X88.082 Y34.421 E3.0808
G1 X88.125 Y34.16 E3.0896
G1 X88.08 Y33.756 E3.10312
G1 X87.934 Y33.378 E3.1166
G1 X87.694 Y33.051 E3.13009
G1 X87.373 Y32.793 E3.14379
G1 X87 Y32.631 E3.15731
G1 X86.598 Y32.568 E3.17085
G1 X86.196 Y32.614 E3.1843
G1 X85.815 Y32.76 E3.19787
G1 X85.671 Y32.868 E3.20386
G1 X85.626 Y32.901 E3.20572
G0 X85.611 Y32.788
G1 X85.456 Y32.417 E3.21909
G1 X85.21 Y32.09 E3.2327
G1 X84.883 Y31.844 E3.24631
G1 X84.512 Y31.689 E3.25968
G1 X84.106 Y31.634 E3.27331
G1 X83.698 Y31.689 E3.287
G1 X83.326 Y31.846 E3.30043
G1 X83.005 Y32.09 E3.31384
G1 X82.758 Y32.413 E3.32737
G1 X82.704 Y32.54 E3.33196
G0 X82.668 Y32.503
G1 X82.45 Y32.282 E3.34126
G1 X82.097 Y32.074 E3.35489
G1 X81.702 Y31.966 E3.36851
G1 X81.294 Y31.966 E3.38208
G1 X80.904 Y32.068 E3.39549
G1 X80.552 Y32.268 E3.40895
G1 X80.262 Y32.554 E3.4225
G1 X80.054 Y32.907 E3.43613
G1 X79.946 Y33.302 E3.44975
G1 X79.946 Y33.487 E3.4559
G1 X79.946 Y33.588 E3.45926
G0 X79.854 Y33.555
G1 X79.671 Y33.487 E3.45999
G1 X79.269 Y33.449 E3.47342
G1 X78.867 Y33.516 E3.48698
G1 X78.497 Y33.687 E3.50054
G1 X78.182 Y33.948 E3.51414
G1 X77.948 Y34.279 E3.52762
G1 X77.805 Y34.659 E3.54113
G1 F1500 E-2.95887
G0 F3600 X77.708 Y34.637
G0 X77.796 Y35.475
G0 X77.993 Y35.832
G0 X77.984 Y35.794
G0 X79.465 Y36.563
G0 X79.814 Y36.593
G0 X79.785 Y36.498
G1 F1500 E3.54113
G1 F900 X79.984 Y36.406 E3.54842
G1 X80.158 Y36.325 E3.5548
G1 X80.468 Y36.066 E3.56824
G1 X80.61 Y35.865 E3.57642
G1 X80.702 Y35.735 E3.58172
G1 X80.819 Y35.422 E3.59284
G1 X80.845 Y35.355 E3.59523
G1 X80.861 Y35.184 E3.60094
G1 X80.882 Y34.947 E3.60885
G1 X81.111 Y35.009 E3.61371
G1 X81.282 Y35.056 E3.61961
G1 X81.539 Y35.057 E3.62816
G1 X81.686 Y35.058 E3.63305
G1 X82.08 Y34.956 E3.64659
G1 X82.357 Y34.799 E3.65718
G1 X82.432 Y34.756 E3.66005
G1 X82.722 Y34.47 E3.6736
G1 X82.869 Y34.22 E3.68324
G1 X82.902 Y34.165 E3.68538
G0 X82.983 Y34.272
G0 X83.002 Y34.297
G1 X83.327 Y34.546 E3.69899
G1 X83.53 Y34.629 E3.70629
G1 X83.702 Y34.7 E3.71248
G1 X84.106 Y34.754 E3.72603
G1 X84.391 Y34.716 E3.7356
G1 X84.508 Y34.7 E3.73952
G1 X84.884 Y34.546 E3.75304
G1 X85.009 Y34.449 E3.7583
G1 X85.044 Y34.422 E3.75977
G0 X85.053 Y34.504
G1 X85.203 Y34.882 E3.7733
G1 X85.44 Y35.204 E3.7866
G1 X85.457 Y35.218 E3.78733
G1 X85.756 Y35.461 E3.80014
G1 X86.131 Y35.625 E3.81376
G1 X86.185 Y35.633 E3.81557
G1 X86.534 Y35.687 E3.82732
G1 X86.803 Y35.658 E3.83632
G1 X86.823 Y35.655 E3.83699
G0 X86.806 Y35.696
G0 X86.803 Y35.722
G1 X86.752 Y36.098 E3.84961
G1 X86.806 Y36.5 E3.8631
G1 X86.884 Y36.689 E3.8699
G1 X86.96 Y36.874 E3.87655
G1 X87.208 Y37.201 E3.8902
G1 X87.532 Y37.448 E3.90375
G1 X87.734 Y37.532 E3.91103
G1 X87.826 Y37.571 E3.91435
G0 X87.776 Y37.635
G1 X87.59 Y37.876 E3.922
G1 X87.436 Y38.252 E3.93552
G1 X87.382 Y38.654 E3.94901
G1 X87.436 Y39.058 E3.96256
G1 X87.551 Y39.34 E3.97269
G1 X87.585 Y39.421 E3.97561
G1 X87.59 Y39.434 E3.97608
G1 X87.773 Y39.672 E3.98606
G1 X87.825 Y39.739 E3.98888
G0 X87.733 Y39.777
G1 X87.721 Y39.782 E3.98932
G1 X87.528 Y39.862 E3.99626
G1 X87.415 Y39.949 E4.00101
G1 X87.208 Y40.108 E4.00969
G1 X86.96 Y40.433 E4.02329
G1 X86.885 Y40.616 E4.02986
G1 X86.806 Y40.808 E4.03677
G1 X86.752 Y41.21 E4.05026
G1 X86.802 Y41.589 E4.06297
G1 X86.806 Y41.614 E4.06382
G1 X86.823 Y41.655 E4.06529
G0 X86.802 Y41.653
G0 X86.566 Y41.62
G1 X86.178 Y41.672 E4.07831
G1 X86.16 Y41.675 E4.07892
G1 X85.789 Y41.83 E4.09229
G1 X85.462 Y42.076 E4.1059
G1 X85.216 Y42.403 E4.11951
G1 X85.061 Y42.774 E4.13289
G1 X85.06 Y42.786 E4.13329
G1 X85.046 Y42.886 E4.13665
G0 X85.002 Y42.853
G0 X84.883 Y42.764
G1 X84.512 Y42.609 E4.15002
G1 X84.391 Y42.593 E4.15408
G1 X84.106 Y42.554 E4.16365
G1 X83.698 Y42.609 E4.17734
G1 X83.534 Y42.678 E4.18326
G1 X83.326 Y42.766 E4.19077
G1 X83.005 Y43.01 E4.20418
G1 X82.942 Y43.092 E4.20762
G1 X82.898 Y43.15 E4.21004
G0 X82.865 Y43.068
G0 X82.844 Y43.018
G1 X82.593 Y42.694 E4.22367
G1 X82.333 Y42.496 E4.23454
G1 X82.272 Y42.449 E4.2371
G1 X81.898 Y42.291 E4.25061
G1 X81.492 Y42.236 E4.26423
G1 X81.086 Y42.291 E4.27786
G1 X80.913 Y42.364 E4.28411
G1 X80.875 Y42.38 E4.28548
G0 X80.886 Y42.302
G1 X80.831 Y41.894 E4.29917
G1 X80.674 Y41.522 E4.3126
G1 X80.618 Y41.448 E4.31569
G1 X80.43 Y41.202 E4.32598
G1 X80.104 Y40.95 E4.33969
G1 X80.001 Y40.908 E4.34339
G1 X79.728 Y40.796 E4.3532
G1 X79.448 Y40.758 E4.3626
G0 X79.475 Y40.692
G1 X79.608 Y40.374 E4.37407
G1 X79.662 Y39.97 E4.38762
G1 X79.62 Y39.658 E4.39809
G1 X79.608 Y39.568 E4.40111
G1 X79.454 Y39.192 E4.41463
G1 X79.284 Y38.972 E4.42387
G1 X79.202 Y38.866 E4.42833
G1 X79.022 Y38.729 E4.43585
G1 X78.999 Y38.711 E4.43683
G1 X78.925 Y38.654 E4.43993
G0 X78.998 Y38.599
G1 X79.205 Y38.441 E4.4463
G1 X79.223 Y38.418 E4.44727
G1 X79.284 Y38.338 E4.45062
G1 X79.454 Y38.114 E4.45997
G1 X79.608 Y37.74 E4.47342
G1 X79.62 Y37.651 E4.47641
G1 X79.662 Y37.338 E4.48691
G1 X79.608 Y36.936 E4.5004
G1 X79.479 Y36.627 E4.51154
G1 X79.448 Y36.554 E4.51418
G1 X79.785 Y36.498 E4.51919
G0 F3600 X80.145 Y36.75
G1 F900 X79.867 Y37.423 E4.54182
G1 X79.764 Y37.67 E4.54218
G0 X79.753 Y37.758
G1 X79.702 Y38.146 E4.54906
G1 X79.666 Y38.425 E4.55672
G1 X79.635 Y38.654 E4.56441
G1 X79.665 Y38.884 E4.57212
G1 X79.701 Y39.16 E4.57969
G1 X79.752 Y39.549 E4.58515
G1 X79.764 Y39.638 E4.5853
G0 X79.866 Y39.884
G1 X80.144 Y40.557 E4.60952
G1 X80.318 Y40.784 E4.61734
G1 X80.561 Y41.101 E4.62452
G1 X80.749 Y41.347 E4.62509
G0 X80.785 Y41.374
G1 X81.064 Y41.588 E4.63206
G1 X81.539 Y41.952 E4.65196
G1 X81.599 Y41.976 E4.6538
G1 X81.965 Y42.128 E4.66128
G1 X82.34 Y42.283 E4.66727
G0 X82.458 Y42.332
G1 X82.636 Y42.355 E4.66852
G1 X83.367 Y42.451 E4.6921
G0 X83.442 Y42.461
G1 X83.674 Y42.431 E4.69497
G1 X84.082 Y42.377 E4.70107
G1 X84.426 Y42.332 E4.70336
G1 X85.075 Y42.064 E4.72633
G1 X85.345 Y41.952 E4.73234
G1 X85.358 Y41.942 E4.73289
G1 X85.684 Y41.693 E4.73874
G1 X85.992 Y41.457 E4.74637
G1 X86.135 Y41.347 E4.75012
G1 X86.642 Y40.685 E4.77637
G0 X86.74 Y40.557
G0 X86.815 Y40.374
G1 X86.967 Y40.008 E4.78367
G1 X87.066 Y39.767 E4.79087
G1 X87.12 Y39.638 E4.79552
G1 X87.161 Y39.329 E4.80588
G1 X87.2 Y39.027 E4.81403
G1 X87.249 Y38.654 E4.81961
G1 X87.201 Y38.284 E4.82512
G1 X87.12 Y37.67 E4.84571
G1 X86.968 Y37.302 E4.85896
G1 X86.815 Y36.934 E4.8658
G0 X86.739 Y36.75
G0 X86.644 Y36.626
G1 X86.135 Y35.963 E4.89346
G1 X85.97 Y35.837 E4.89855
G1 X85.654 Y35.594 E4.90569
G1 X85.346 Y35.357 E4.91128
G1 X85.056 Y35.237 E4.91641
G1 X84.426 Y34.976 E4.93909
G1 X84.083 Y34.931 E4.94339
G1 X83.679 Y34.878 E4.94943
G0 X83.442 Y34.847
G0 X83.369 Y34.856
G1 X82.458 Y34.976 E4.98
G1 X82.143 Y35.106 E4.98197
G1 X81.77 Y35.261 E4.98835
G1 X81.538 Y35.357 E4.99061
G0 X81.523 Y35.368
G1 X81.094 Y35.698 E5.00861
G1 X80.829 Y35.902 E5.01596
G0 X80.749 Y35.963
G1 X80.596 Y36.163 E5.01769
G1 X80.356 Y36.476 E5.02477
G1 X80.145 Y36.75 E5.03409
G0 F3600 X80.494 Y36.952
;TYPE:WALL-OUTER
G1 F900 X80.154 Y37.774 E5.06368
G1 X80.038 Y38.654 E5.0932
G1 X80.154 Y39.534 E5.12272
G1 X80.494 Y40.356 E5.15231
G1 X81.034 Y41.062 E5.18187
G1 X81.74 Y41.602 E5.21143
G1 X82.562 Y41.942 E5.24102
G1 X83.442 Y42.058 E5.27054
G1 X84.322 Y41.942 E5.30007
G1 X85.144 Y41.602 E5.32965
G1 X85.85 Y41.062 E5.35921
G1 X86.39 Y40.356 E5.38878
G1 X86.73 Y39.534 E5.41836
G1 X86.846 Y38.654 E5.44789
G1 X86.73 Y37.774 E5.47741
G1 X86.39 Y36.952 E5.50699
G1 X85.85 Y36.248 E5.5365
G1 X85.144 Y35.706 E5.56611
G1 X84.322 Y35.366 E5.59569
G1 X83.442 Y35.25 E5.62522
G1 X82.562 Y35.366 E5.65474
G1 X81.74 Y35.706 E5.68432
G1 X81.034 Y36.248 E5.71393
G1 X80.494 Y36.952 E5.74344
G0 F3600 X80.418 Y37.136
G0 X79.957 Y36.945
G0 X80.262 Y36.367
G0 X79.942 Y35.984
G1 F900 X80.172 Y35.792 E5.7534
G1 X80.346 Y35.546 E5.76342
G1 X80.452 Y35.264 E5.77344
G1 X80.48 Y34.966 E5.7834
G1 X80.43 Y34.668 E5.79345
G1 X80.394 Y34.59 E5.79631
G1 X80.304 Y34.394 E5.80348
G1 X80.133 Y34.183 E5.81251
G1 X80.114 Y34.16 E5.81351
G1 X79.864 Y33.984 E5.82368
G1 X79.582 Y33.88 E5.83367
G1 X79.284 Y33.852 E5.84363
G1 X78.986 Y33.902 E5.85368
G1 X78.712 Y34.028 E5.86371
G1 X78.478 Y34.222 E5.87382
G1 X78.304 Y34.468 E5.88384
G1 X78.198 Y34.75 E5.89386
G1 X78.17 Y35.05 E5.90388
G1 X78.22 Y35.346 E5.91387
G1 X78.346 Y35.624 E5.92402
G1 X78.535 Y35.848 E5.93377
G1 X78.54 Y35.854 E5.93403
G1 X78.62 Y35.91 E5.93727
G1 X78.786 Y36.028 E5.94405
G1 X79.068 Y36.134 E5.95407
G1 X79.072 Y36.134 E5.9542
G1 X79.368 Y36.162 E5.96409
G1 X79.666 Y36.112 E5.97414
G1 X79.942 Y35.984 E5.98426
G0 F3600 X80.095 Y35.856
G0 X80.415 Y36.24
G0 X79.535 Y36.602
G0 X78.92 Y36.52
G1 F900 X78.832 Y36.454 E5.98792
G1 X78.829 Y36.451 E5.98806
G1 X78.678 Y36.336 E5.99359
G1 X78.664 Y36.33 E5.9941
G1 X78.4 Y36.222 E6.00258
G1 X78.392 Y36.221 E6.00285
G1 X78.102 Y36.182 E6.01258
G1 X77.804 Y36.222 E6.02258
G1 X77.526 Y36.336 E6.03258
G1 X77.284 Y36.52 E6.04269
G1 X77.1 Y36.762 E6.0528
G1 X76.986 Y37.04 E6.06279
G1 X76.946 Y37.338 E6.07279
G1 X76.986 Y37.636 E6.08279
G1 X77.1 Y37.914 E6.09279
G1 X77.284 Y38.156 E6.1029
G1 X77.526 Y38.34 E6.11301
G1 X77.802 Y38.453 E6.12293
G1 X77.804 Y38.454 E6.123
G1 X78.102 Y38.494 E6.133
G1 X78.35 Y38.461 E6.14133
G1 X78.4 Y38.454 E6.143
G1 X78.678 Y38.34 E6.153
G1 X78.92 Y38.156 E6.16311
G1 X79.104 Y37.914 E6.17322
G1 X79.218 Y37.636 E6.18321
G1 X79.258 Y37.338 E6.19321
G1 X79.218 Y37.04 E6.20321
G1 X79.104 Y36.762 E6.21321
G1 X78.92 Y36.52 E6.22332
G0 F3600 X78.832 Y36.454
G0 X78.829 Y36.451
G0 X78.761 Y36.399
G0 X79.535 Y36.602
G0 X79.702 Y37.338
G0 X79.646 Y37.75
G0 X79.488 Y38.133
G0 X79.025 Y38.654
G0 X78.402 Y38.854
G1 F900 X78.349 Y38.847 E6.2251
G1 X78.098 Y38.814 E6.23254
G1 X77.862 Y38.848 E6.23956
G1 X77.859 Y38.848 E6.23966
G1 X77.795 Y38.858 E6.24182
G1 X77.52 Y38.975 E6.25176
G1 X77.286 Y39.152 E6.26151
G1 X77.1 Y39.393 E6.27164
G1 X76.986 Y39.672 E6.28166
G1 X76.946 Y39.97 E6.29166
G1 X76.986 Y40.27 E6.30173
G1 X77.1 Y40.548 E6.31172
G1 X77.285 Y40.788 E6.3218
G1 X77.524 Y40.971 E6.33181
G1 X77.804 Y41.088 E6.34191
G1 X78.102 Y41.126 E6.3519
G1 X78.364 Y41.092 E6.36069
G1 X78.4 Y41.088 E6.36189
G1 X78.62 Y40.996 E6.36982
G1 X78.68 Y40.971 E6.37198
G1 X78.794 Y40.884 E6.37675
G1 X78.823 Y40.862 E6.37796
G1 X78.919 Y40.788 E6.382
G1 X79.104 Y40.548 E6.39207
G1 X79.218 Y40.27 E6.40207
G1 X79.258 Y39.97 E6.41213
G1 X79.218 Y39.672 E6.42214
G1 X79.104 Y39.393 E6.43216
G1 X78.918 Y39.152 E6.44228
G1 X78.679 Y38.97 E6.45228
G1 X78.402 Y38.854 E6.46226
G0 F3600 X78.349 Y38.847
G0 X78.204 Y38.828
G0 X79.025 Y38.654
G0 X79.488 Y39.173
G0 X79.646 Y39.558
G0 X79.702 Y39.97
G0 X79.534 Y40.709
G0 X79.026 Y41.186
G1 F900 X78.806 Y41.276 E6.46914
G1 X78.748 Y41.3 E6.47067
G1 X78.632 Y41.389 E6.47436
G1 X78.603 Y41.411 E6.47554
G1 X78.508 Y41.484 E6.47953
G1 X78.326 Y41.723 E6.48952
G1 X78.208 Y42.002 E6.49959
G1 X78.17 Y42.302 E6.50965
G1 X78.208 Y42.6 E6.51964
G1 X78.325 Y42.88 E6.52974
G1 X78.508 Y43.119 E6.53975
G1 X78.748 Y43.304 E6.54983
G1 X79.026 Y43.418 E6.55982
G1 X79.326 Y43.458 E6.56989
G1 X79.624 Y43.418 E6.57989
G1 X79.903 Y43.304 E6.58991
G1 X80.084 Y43.164 E6.59752
G1 X80.144 Y43.118 E6.60004
G1 X80.221 Y43.017 E6.60426
G1 X80.326 Y42.879 E6.61003
G1 X80.341 Y42.842 E6.61136
G1 X80.369 Y42.775 E6.61377
G1 X80.442 Y42.602 E6.62002
G1 X80.482 Y42.302 E6.63008
G1 X80.442 Y42 E6.64022
G1 X80.325 Y41.724 E6.65019
G1 X80.144 Y41.486 E6.66013
G1 X79.903 Y41.3 E6.67026
G1 X79.624 Y41.186 E6.68028
G1 X79.326 Y41.146 E6.69028
G1 X79.062 Y41.182 E6.69914
G1 X79.026 Y41.186 E6.70032
G0 F3600 X78.841 Y41.261
G0 X79.534 Y40.709
G0 X80.123 Y40.916
G0 X80.458 Y41.174
G0 X80.708 Y41.502
G0 X80.869 Y41.884
G0 X80.936 Y42.302
