;FLAVOR:RepRap
;TIME:295
;Filament used: 0.270086m
;Layer height: 0.3
;Generated with Cura_SteamEngine 2.4.0
M104 S185
M109 S185
G28 ;Home
G1 Z15.0 F6000 ;Move the platform down 15mm
;Prime the extruder
G92 E0
G1 F200 E3
G92 E0
;LAYER_COUNT:27
;LAYER:0
M107
G1 F1500 E-6.5
G0 F3600 X53.501 Y56.001 Z0.2
;TYPE:WALL-INNER
G1 F1500 E0
G1 F900 X55.403 Y54.541 E0.07975
G1 X57.627 Y53.62 E0.15981
G1 X59.999 Y53.306 E0.23939
G1 X62.373 Y53.62 E0.31904
G1 X64.597 Y54.541 E0.3991
G1 X66.5 Y56.001 E0.47888
G1 X67.962 Y57.906 E0.55875
G1 X68.881 Y60.123 E0.63857
G1 X69.194 Y62.5 E0.71831
G1 X68.881 Y64.877 E0.79805
G1 X67.961 Y67.097 E0.87798
G1 X66.5 Y69.001 E0.9578
G1 X64.6 Y70.458 E1.03744
G1 X62.372 Y71.381 E1.11765
G1 X60 Y71.694 E1.19723
G1 X57.623 Y71.38 E1.27697
G1 X55.403 Y70.46 E1.3569
G1 X53.503 Y69.002 E1.43656
G1 X52.038 Y67.094 E1.51656
G1 X51.119 Y64.877 E1.59639
G1 X50.806 Y62.5 E1.67613
G1 X51.119 Y60.123 E1.75587
G1 X52.038 Y57.906 E1.83569
G1 X53.501 Y56.001 E1.91558
G0 F3600 X53.571 Y56.071
G0 X54.999 Y57.451
G0 X55.052 Y57.535
G1 F900 X54.742 Y57.794 E1.92902
G1 X54.506 Y58.122 E1.94246
G1 X54.363 Y58.506 E1.95609
G1 X54.325 Y58.914 E1.96971
G1 X54.394 Y59.312 E1.98315
G1 X54.508 Y59.564 E1.99235
G1 X54.543 Y59.64 E1.99513
G0 X54.44 Y59.653
G1 X54.259 Y59.678 E1.99925
G1 X53.884 Y59.832 E2.01274
G1 X53.557 Y60.081 E2.02641
G1 X53.308 Y60.408 E2.04008
G1 X53.154 Y60.783 E2.05356
G1 X53.1 Y61.185 E2.06705
G1 X53.154 Y61.587 E2.08054
G1 X53.308 Y61.96 E2.09396
G1 X53.557 Y62.289 E2.10769
G1 X53.736 Y62.424 E2.11514
G1 X53.761 Y62.443 E2.11619
G1 X53.837 Y62.5 E2.11935
G0 X53.762 Y62.557
G1 X53.559 Y62.711 E2.12554
G1 X53.54 Y62.736 E2.12658
G1 X53.308 Y63.039 E2.13928
G1 X53.154 Y63.414 E2.15276
G1 X53.1 Y63.815 E2.16622
G1 X53.154 Y64.22 E2.17981
G1 X53.308 Y64.594 E2.19326
G1 X53.558 Y64.92 E2.20692
G1 X53.88 Y65.165 E2.22038
G1 X54.2 Y65.3 E2.23193
G1 X54.258 Y65.324 E2.23402
G1 X54.539 Y65.36 E2.24344
G0 X54.51 Y65.43
G1 X54.486 Y65.488 E2.24553
G1 X54.377 Y65.744 E2.25479
G1 X54.325 Y66.148 E2.26833
G1 X54.377 Y66.55 E2.28182
G1 X54.533 Y66.928 E2.29542
G1 X54.781 Y67.248 E2.30888
G1 X55.103 Y67.499 E2.32246
G1 X55.48 Y67.654 E2.33602
G1 X55.885 Y67.708 E2.34961
G1 X56.287 Y67.654 E2.3631
G1 X56.465 Y67.581 E2.3695
G1 X56.501 Y67.566 E2.3708
G0 X56.491 Y67.642
G1 X56.545 Y68.042 E2.38422
G1 X56.698 Y68.423 E2.39788
G1 X56.951 Y68.746 E2.41152
G1 X57.268 Y68.99 E2.42483
G1 X57.644 Y69.149 E2.4384
G1 X58.05 Y69.204 E2.45203
G1 X58.455 Y69.15 E2.46562
G1 X58.83 Y68.993 E2.47914
G1 X59.154 Y68.746 E2.49269
G1 X59.215 Y68.666 E2.49604
G1 X59.258 Y68.61 E2.49839
G0 X59.291 Y68.689
G0 X59.311 Y68.738
G1 X59.56 Y69.063 E2.51201
G1 X59.884 Y69.311 E2.52558
G1 X60.258 Y69.466 E2.53904
G1 X60.664 Y69.52 E2.55266
G1 X61.067 Y69.466 E2.56619
G1 X61.443 Y69.31 E2.57973
G1 X61.768 Y69.06 E2.59336
G1 X62.011 Y68.739 E2.60676
G1 X62.124 Y68.472 E2.6164
G1 X62.168 Y68.368 E2.62015
G1 X62.17 Y68.35 E2.62076
G1 X62.184 Y68.253 E2.62402
G0 X62.228 Y68.286
G0 X62.342 Y68.373
G1 X62.446 Y68.417 E2.62777
G1 X62.716 Y68.533 E2.63755
G1 X63.123 Y68.588 E2.65121
G1 X63.532 Y68.533 E2.66493
G1 X63.905 Y68.373 E2.67843
G1 X64.225 Y68.13 E2.6918
G1 X64.475 Y67.805 E2.70543
G1 X64.631 Y67.43 E2.71894
G1 X64.683 Y67.026 E2.73249
G1 X64.634 Y66.646 E2.74523
G1 X64.631 Y66.624 E2.74597
G1 X64.614 Y66.582 E2.74748
G0 X64.635 Y66.584
G0 X64.869 Y66.616
G1 X65.27 Y66.562 E2.76094
G1 X65.65 Y66.408 E2.77457
G1 X65.97 Y66.159 E2.78806
G1 X66.222 Y65.836 E2.80169
G1 X66.375 Y65.459 E2.81522
G1 X66.429 Y65.056 E2.82874
G1 X66.375 Y64.656 E2.84217
G1 X66.222 Y64.277 E2.85576
G1 X66.065 Y64.075 E2.86427
G1 X66.036 Y64.038 E2.86583
G1 X65.984 Y63.971 E2.86865
G0 X66.08 Y63.932
G1 X66.276 Y63.851 E2.87336
G1 X66.314 Y63.823 E2.8748
G1 X66.602 Y63.604 E2.88683
G1 X66.851 Y63.278 E2.90048
G1 X67.005 Y62.904 E2.91393
G1 X67.059 Y62.5 E2.92749
G1 X67.005 Y62.098 E2.94098
G1 X66.851 Y61.725 E2.9544
G1 X66.603 Y61.397 E2.96808
G1 X66.315 Y61.178 E2.98011
G1 X66.279 Y61.151 E2.98161
G1 X66.078 Y61.067 E2.98885
G1 X65.985 Y61.028 E2.99221
G0 X66.035 Y60.963
G1 X66.063 Y60.927 E2.9936
G1 X66.222 Y60.723 E3.0022
G1 X66.375 Y60.344 E3.0158
G1 X66.429 Y59.944 E3.02922
G1 X66.375 Y59.545 E3.04261
G1 X66.222 Y59.167 E3.05618
G1 X65.97 Y58.84 E3.06991
G1 X65.65 Y58.595 E3.08331
G1 X65.274 Y58.438 E3.09686
G1 X64.948 Y58.394 E3.1078
G1 X64.869 Y58.384 E3.11045
G1 X64.739 Y58.401 E3.11481
G1 X64.738 Y58.401 E3.11485
G1 X64.736 Y58.401 E3.11491
G1 X64.695 Y58.407 E3.11629
G1 X64.616 Y58.418 E3.11894
G1 X64.628 Y58.344 E3.12011
G1 X64.641 Y58.265 E3.12153
G1 X64.684 Y58.011 E3.1301
G1 X64.684 Y58.009 E3.13016
G1 X64.684 Y58.008 E3.13019
G1 X64.638 Y57.601 E3.14382
G1 X64.491 Y57.224 E3.15728
G1 X64.251 Y56.897 E3.17077
G1 X63.93 Y56.639 E3.18447
G1 X63.557 Y56.477 E3.19799
G1 X63.155 Y56.414 E3.21152
G1 X62.754 Y56.46 E3.22495
G1 X62.369 Y56.606 E3.23864
G1 X62.228 Y56.713 E3.24453
G1 X62.183 Y56.747 E3.24641
G0 X62.168 Y56.634
G1 X62.013 Y56.263 E3.25978
G1 X61.767 Y55.937 E3.27336
G1 X61.442 Y55.691 E3.28692
G1 X61.07 Y55.535 E3.30034
G1 X60.664 Y55.48 E3.31396
G1 X60.255 Y55.535 E3.32769
G1 X59.883 Y55.692 E3.34112
G1 X59.563 Y55.936 E3.3545
G1 X59.311 Y56.262 E3.36821
G1 X59.261 Y56.384 E3.37259
G0 X59.226 Y56.348
G1 X59.008 Y56.128 E3.38191
G1 X58.655 Y55.92 E3.39554
G1 X58.26 Y55.812 E3.40916
G1 X57.852 Y55.812 E3.42273
G1 X57.462 Y55.914 E3.43613
G1 X57.11 Y56.114 E3.4496
G1 X56.82 Y56.4 E3.46315
G1 X56.612 Y56.753 E3.47677
G1 X56.504 Y57.148 E3.49039
G1 X56.504 Y57.333 E3.49655
G1 X56.504 Y57.435 E3.49994
G0 X56.411 Y57.4
G1 X56.231 Y57.333 E3.50058
G1 X55.827 Y57.295 E3.51408
G1 X55.425 Y57.362 E3.52763
G1 X55.052 Y57.535 E3.54131
G1 F1500 E-2.95869
G0 F3600 X54.999 Y57.451
G0 X55.826 Y57.256
G0 X56.27 Y57.329
G0 X56.231 Y57.333
G0 X57.452 Y58.809
G0 X57.518 Y59.038
G0 X57.42 Y59.029
G1 F1500 E3.54131
G1 F900 X57.441 Y58.793 E3.54919
G1 X57.67 Y58.856 E3.55406
G1 X57.835 Y58.901 E3.55974
G1 X57.84 Y58.902 E3.55991
G1 X58.097 Y58.903 E3.56846
G1 X58.244 Y58.904 E3.57335
G1 X58.638 Y58.802 E3.58689
G1 X58.915 Y58.645 E3.59748
G1 X58.99 Y58.602 E3.60035
G1 X59.28 Y58.316 E3.6139
G1 X59.429 Y58.065 E3.62361
G1 X59.46 Y58.013 E3.62562
G0 X59.539 Y58.116
G0 X59.56 Y58.143
G1 X59.884 Y58.392 E3.63921
G1 X60.088 Y58.476 E3.64655
G1 X60.259 Y58.546 E3.6527
G1 X60.664 Y58.6 E3.66629
G1 X60.949 Y58.562 E3.67585
G1 X61.066 Y58.546 E3.67978
G1 X61.443 Y58.392 E3.69332
G1 X61.567 Y58.296 E3.69854
G1 X61.601 Y58.27 E3.69996
G0 X61.61 Y58.351
G1 X61.762 Y58.728 E3.71348
G1 X61.998 Y59.05 E3.72676
G1 X62.015 Y59.064 E3.72749
G1 X62.313 Y59.307 E3.74028
G1 X62.689 Y59.471 E3.75392
G1 X62.742 Y59.479 E3.75571
G1 X63.092 Y59.533 E3.76749
G1 X63.36 Y59.504 E3.77645
G1 X63.38 Y59.501 E3.77712
G0 X63.363 Y59.542
G0 X63.36 Y59.568
G1 X63.309 Y59.944 E3.78974
G1 X63.363 Y60.347 E3.80327
G1 X63.44 Y60.536 E3.81006
G1 X63.517 Y60.723 E3.81678
G1 X63.767 Y61.048 E3.83042
G1 X64.089 Y61.294 E3.8439
G1 X64.292 Y61.379 E3.85122
G1 X64.382 Y61.417 E3.85447
G0 X64.334 Y61.48
G1 X64.147 Y61.724 E3.8622
G1 X63.993 Y62.098 E3.87565
G1 X63.939 Y62.5 E3.88914
G1 X63.993 Y62.904 E3.9027
G1 X64.147 Y63.278 E3.91615
G1 X64.332 Y63.52 E3.92628
G1 X64.382 Y63.585 E3.92901
G0 X64.292 Y63.622
G1 X64.085 Y63.709 E3.93438
G1 X63.767 Y63.952 E3.94769
G1 X63.517 Y64.277 E3.96133
G1 X63.442 Y64.462 E3.96797
G1 X63.363 Y64.653 E3.97484
G1 X63.309 Y65.056 E3.98837
G1 X63.359 Y65.435 E4.00108
G1 X63.363 Y65.46 E4.00192
G1 X63.38 Y65.501 E4.0034
G0 X63.359 Y65.499
G0 X63.123 Y65.466
G1 X62.735 Y65.518 E4.01642
G1 X62.717 Y65.521 E4.01703
G1 X62.347 Y65.676 E4.03037
G1 X62.019 Y65.921 E4.04399
G1 X61.773 Y66.25 E4.05765
G1 X61.618 Y66.62 E4.07099
G1 X61.617 Y66.631 E4.07136
G1 X61.603 Y66.732 E4.07475
G0 X61.559 Y66.699
G0 X61.439 Y66.609
G1 X61.067 Y66.455 E4.08814
G1 X60.949 Y66.439 E4.0921
G1 X60.664 Y66.4 E4.10167
G1 X60.257 Y66.454 E4.11532
G1 X60.091 Y66.523 E4.1213
G1 X59.886 Y66.61 E4.12871
G1 X59.562 Y66.855 E4.14222
G1 X59.498 Y66.939 E4.14573
G1 X59.455 Y66.995 E4.14808
G0 X59.422 Y66.914
G0 X59.402 Y66.867
G1 X59.154 Y66.539 E4.16176
G1 X58.893 Y66.342 E4.17263
G1 X58.83 Y66.295 E4.17525
G1 X58.457 Y66.136 E4.18874
G1 X58.05 Y66.081 E4.2024
G1 X57.643 Y66.136 E4.21606
G1 X57.471 Y66.209 E4.22227
G1 X57.434 Y66.225 E4.22361
G0 X57.444 Y66.148
G1 X57.389 Y65.74 E4.2373
G1 X57.232 Y65.368 E4.25073
G1 X57.176 Y65.293 E4.25385
G1 X56.989 Y65.048 E4.2641
G1 X56.664 Y64.797 E4.27776
G1 X56.558 Y64.753 E4.28157
G1 X56.288 Y64.641 E4.29129
G1 X56.005 Y64.603 E4.30079
G0 X56.033 Y64.535
G1 X56.166 Y64.22 E4.31216
G1 X56.22 Y63.815 E4.32575
G1 X56.179 Y63.504 E4.33619
G1 X56.166 Y63.414 E4.33921
G1 X56.012 Y63.039 E4.3527
G1 X55.842 Y62.816 E4.36202
G1 X55.781 Y62.737 E4.36534
G1 X55.761 Y62.711 E4.36643
G1 X55.559 Y62.557 E4.37488
G1 X55.527 Y62.533 E4.37621
G1 X55.485 Y62.501 E4.37797
G0 X55.557 Y62.446
G1 X55.583 Y62.426 E4.37899
G1 X55.733 Y62.312 E4.38526
G1 X55.764 Y62.288 E4.38648
G1 X55.841 Y62.186 E4.39073
G1 X56.012 Y61.96 E4.40016
G1 X56.166 Y61.587 E4.41358
G1 X56.178 Y61.497 E4.4166
G1 X56.22 Y61.185 E4.42707
G1 X56.166 Y60.783 E4.44056
G1 X56.036 Y60.473 E4.45174
G1 X56.005 Y60.399 E4.45441
G1 X56.342 Y60.345 E4.45941
G1 X56.542 Y60.252 E4.46675
G1 X56.716 Y60.17 E4.47315
G1 X57.026 Y59.912 E4.48656
G1 X57.169 Y59.711 E4.49476
G1 X57.261 Y59.581 E4.50006
G1 X57.377 Y59.269 E4.51113
G1 X57.403 Y59.201 E4.51355
G1 X57.419 Y59.03 E4.51927
G1 X57.42 Y59.029 E4.51931
G0 F3600 X57.307 Y59.809
G0 F900 X57.154 Y60.009
G1 X56.914 Y60.321 E4.52638
G1 X56.703 Y60.596 E4.53572
G1 X56.424 Y61.27 E4.55838
G1 X56.322 Y61.516 E4.56002
G0 X56.311 Y61.605
G1 X56.26 Y61.992 E4.56689
G1 X56.223 Y62.273 E4.5746
G1 X56.193 Y62.5 E4.58222
G1 X56.223 Y62.729 E4.5899
G1 X56.259 Y63.007 E4.59753
G1 X56.31 Y63.395 E4.60296
G1 X56.322 Y63.484 E4.60402
G1 X56.424 Y63.73 E4.60607
G1 X56.702 Y64.403 E4.63029
G1 X56.877 Y64.632 E4.63814
G1 X57.119 Y64.947 E4.64524
G0 X57.307 Y65.193
G0 X57.343 Y65.22
G1 X57.622 Y65.434 E4.6522
G1 X58.097 Y65.798 E4.6721
G1 X58.156 Y65.822 E4.67391
G1 X58.524 Y65.974 E4.68138
G1 X58.898 Y66.129 E4.68734
G0 X59.016 Y66.178
G1 X59.197 Y66.201 E4.68965
G1 X59.927 Y66.297 E4.71319
G1 X60 Y66.307 E4.71388
G1 X60.233 Y66.277 E4.71516
G1 X60.64 Y66.223 E4.72124
G1 X60.984 Y66.178 E4.72306
G1 X61.632 Y65.911 E4.74598
G1 X61.903 Y65.798 E4.75201
G1 X61.916 Y65.788 E4.75255
G1 X62.242 Y65.539 E4.75839
G1 X62.549 Y65.303 E4.76553
G1 X62.692 Y65.193 E4.76928
G1 X63.2 Y64.53 E4.79558
G0 X63.297 Y64.403
G0 X63.373 Y64.219
G1 X63.525 Y63.853 E4.8029
G1 X63.677 Y63.485 E4.81614
G1 X63.758 Y62.872 E4.83671
G1 X63.808 Y62.5 E4.84221
G1 X63.759 Y62.13 E4.84767
G1 X63.677 Y61.515 E4.86831
G1 X63.526 Y61.149 E4.88148
G1 X63.374 Y60.782 E4.88829
G0 X63.296 Y60.596
G0 X63.202 Y60.473
G1 X62.692 Y59.809 E4.91599
G1 X62.527 Y59.683 E4.92024
G1 X62.212 Y59.44 E4.92735
G1 X61.904 Y59.203 E4.93294
G1 X61.615 Y59.084 E4.93805
G1 X60.984 Y58.822 E4.96078
G1 X60.641 Y58.778 E4.96343
G1 X60.236 Y58.724 E4.96952
G0 X60 Y58.693
G0 X59.926 Y58.702
G1 X59.016 Y58.822 E5.00005
G1 X58.701 Y58.952 E5.00202
G1 X58.328 Y59.107 E5.0084
G1 X58.096 Y59.203 E5.01066
G0 X58.081 Y59.214
G1 X58.077 Y59.217 E5.01082
G1 X57.652 Y59.544 E5.02866
G1 X57.388 Y59.747 E5.03597
G1 X57.307 Y59.809 E5.0371
G0 F3600 X57.592 Y60.094
;TYPE:WALL-OUTER
G1 F900 X57.052 Y60.798 E5.06661
G1 X56.712 Y61.62 E5.0962
G1 X56.596 Y62.5 E5.12572
G1 X56.712 Y63.38 E5.15524
G1 X57.052 Y64.202 E5.18483
G1 X57.592 Y64.908 E5.21439
G1 X58.298 Y65.448 E5.24395
G1 X59.12 Y65.788 E5.27354
G1 X60 Y65.904 E5.30306
G1 X60.88 Y65.788 E5.33258
G1 X61.702 Y65.448 E5.36217
G1 X62.407 Y64.908 E5.39171
G1 X62.947 Y64.202 E5.42127
G1 X63.287 Y63.38 E5.45086
G1 X63.404 Y62.5 E5.48038
G1 X63.287 Y61.62 E5.50991
G1 X62.947 Y60.798 E5.5395
G1 X62.407 Y60.094 E5.56901
G1 X61.702 Y59.552 E5.59858
G1 X60.88 Y59.212 E5.62817
G1 X60 Y59.096 E5.65769
G1 X59.12 Y59.212 E5.68721
G1 X58.298 Y59.552 E5.7168
G1 X57.592 Y60.094 E5.7464
G0 F3600 X57.471 Y60.252
G0 X57.076 Y59.948
G0 X57.312 Y59.681
G0 X56.905 Y59.392
G1 F900 X57.01 Y59.11 E5.75641
G1 X57.039 Y58.812 E5.76637
G1 X56.988 Y58.512 E5.77649
G1 X56.954 Y58.439 E5.77917
G1 X56.862 Y58.24 E5.78646
G1 X56.691 Y58.03 E5.79547
G1 X56.672 Y58.007 E5.79646
G1 X56.422 Y57.832 E5.80661
G1 X56.14 Y57.726 E5.81663
G1 X55.842 Y57.698 E5.82659
G1 X55.544 Y57.748 E5.83664
G1 X55.268 Y57.876 E5.84675
G1 X55.037 Y58.069 E5.85677
G1 X54.862 Y58.312 E5.86673
G1 X54.756 Y58.596 E5.87681
G1 X54.728 Y58.898 E5.8869
G1 X54.779 Y59.193 E5.89685
G1 X54.905 Y59.468 E5.90691
G1 X55.093 Y59.694 E5.91669
G1 X55.098 Y59.7 E5.91695
G1 X55.178 Y59.757 E5.92022
G1 X55.344 Y59.874 E5.92697
G1 X55.629 Y59.98 E5.93709
G1 X55.631 Y59.98 E5.93715
G1 X55.926 Y60.006 E5.947
G1 X56.224 Y59.959 E5.95704
G1 X56.5 Y59.83 E5.96717
G1 X56.73 Y59.638 E5.97714
G1 X56.905 Y59.392 E5.98718
G0 F3600 X56.975 Y59.204
G0 X57.442 Y59.379
G0 X57.471 Y58.904
G0 X57.602 Y58.424
G1 F900 X57.894 Y58.502 E5.99723
G1 X58.194 Y58.504 E6.00721
G1 X58.486 Y58.428 E6.01724
G1 X58.747 Y58.28 E6.02722
G1 X58.962 Y58.068 E6.03727
G1 X59.116 Y57.808 E6.04732
G1 X59.193 Y57.528 E6.05697
G1 X59.196 Y57.515 E6.05742
G1 X59.196 Y57.34 E6.06324
G1 X59.196 Y57.214 E6.06743
G1 X59.174 Y57.126 E6.07045
G1 X59.121 Y56.922 E6.07746
G1 X59.121 Y56.921 E6.07749
G1 X58.972 Y56.66 E6.08749
G1 X58.76 Y56.446 E6.09751
G1 X58.498 Y56.292 E6.10761
G1 X58.206 Y56.212 E6.11768
G1 X57.904 Y56.212 E6.12773
G1 X57.614 Y56.288 E6.1377
G1 X57.353 Y56.436 E6.14768
G1 X57.138 Y56.648 E6.15772
G1 X56.984 Y56.91 E6.16783
G1 X56.904 Y57.202 E6.1779
G1 X56.904 Y57.504 E6.18794
G1 X56.981 Y57.794 E6.19792
G1 X56.997 Y57.822 E6.19889
G1 X57.128 Y58.054 E6.20657
G1 X57.281 Y58.21 E6.21316
G1 X57.34 Y58.27 E6.21596
G1 X57.602 Y58.424 E6.22606
G0 F3600 X57.795 Y58.475
G0 X57.664 Y58.957
G0 X58.248 Y58.943
G0 X58.653 Y58.839
G0 X59.014 Y58.633
G0 X59.466 Y58.112
G0 X59.661 Y57.618
G1 F900 X59.845 Y57.858 E6.23612
G1 X60.085 Y58.042 E6.24618
G1 X60.363 Y58.156 E6.25617
G1 X60.664 Y58.196 E6.26627
G1 X60.962 Y58.156 E6.27627
G1 X61.241 Y58.042 E6.2863
G1 X61.481 Y57.856 E6.2964
G1 X61.604 Y57.694 E6.30316
G1 X61.662 Y57.618 E6.30634
G1 X61.703 Y57.52 E6.30987
G1 X61.779 Y57.342 E6.31631
G1 X61.78 Y57.328 E6.31678
G1 X61.789 Y57.256 E6.31919
G1 X61.819 Y57.04 E6.32645
G1 X61.779 Y56.74 E6.33651
G1 X61.663 Y56.464 E6.34647
G1 X61.481 Y56.222 E6.35654
G1 X61.241 Y56.04 E6.36656
G1 X60.964 Y55.924 E6.37655
G1 X60.664 Y55.884 E6.38661
G1 X60.361 Y55.924 E6.39678
G1 X60.085 Y56.041 E6.40675
G1 X59.847 Y56.222 E6.41669
G1 X59.661 Y56.463 E6.42682
G1 X59.547 Y56.742 E6.43684
G1 X59.516 Y56.974 E6.44463
G0 X59.516 Y56.975
G1 X59.507 Y57.04 E6.44647
G1 X59.524 Y57.17 E6.44997
G1 X59.547 Y57.34 E6.4542
G1 X59.557 Y57.365 E6.45444
G1 X59.562 Y57.377 E6.45487
G1 X59.661 Y57.618 E6.46353
G0 F3600 X59.782 Y57.776
G0 X59.466 Y58.112
G0 X59.865 Y58.426
G0 X60.249 Y58.584
G0 X60.664 Y58.64
G0 X61.076 Y58.584
G0 X61.562 Y58.361
G0 X61.967 Y57.95
G1 F900 X62.001 Y58.252 E6.47364
G1 X62.114 Y58.532 E6.48369
G1 X62.29 Y58.772 E6.49358
G1 X62.523 Y58.962 E6.50358
G1 X62.802 Y59.084 E6.51371
G1 X63.1 Y59.13 E6.52374
G1 X63.399 Y59.096 E6.53375
G1 X63.648 Y58.999 E6.54264
G1 X63.677 Y58.988 E6.54367
G1 X63.858 Y58.857 E6.5511
G1 X63.923 Y58.81 E6.55377
G1 X64.001 Y58.712 E6.55793
G1 X64.035 Y58.669 E6.55976
G1 X64.114 Y58.572 E6.56392
G1 X64.233 Y58.297 E6.57388
G1 X64.28 Y58 E6.58389
G1 X64.246 Y57.698 E6.59399
G1 X64.137 Y57.418 E6.60399
G1 X63.959 Y57.176 E6.61398
G1 X63.721 Y56.984 E6.62415
G1 X63.445 Y56.864 E6.63416
G1 X63.147 Y56.818 E6.64419
G1 X62.849 Y56.852 E6.65416
G1 X62.565 Y56.96 E6.66427
G1 X62.324 Y57.142 E6.67431
G1 X62.182 Y57.317 E6.68181
G1 X62.137 Y57.374 E6.68411
G1 X62.089 Y57.48 E6.68683
G1 X62.013 Y57.65 E6.69054
G0 X62.01 Y57.67
G1 X61.996 Y57.764 E6.69351
G1 X61.967 Y57.95 E6.69977
G0 F3600 X61.989 Y58.149
G0 X61.562 Y58.361
G0 X61.728 Y58.747
G0 X61.969 Y59.077
G0 X62.293 Y59.341
G0 X62.678 Y59.509
G0 X63.3 Y59.56
